X:367
T: Changgong diao
N: C1402
O: China,Shaanxi Ankang
S: I, 67]
R: Xiaodiao. Changgong shenghuo]
M: 2/4
L: 1/16
K: C
G2GGA2A2 | d2^c2d4 |
d2d=cA2G2G4 | A2A4^F2G4
G2GGA2A2 | c2d2d2A2 | c2A2G4 |
E2G4A2 | A2d2c2d2 | c3AG4 |
A4G2A2 | d2dcA2A2 | G8

@@@ Tune index: 6368
